ui/public/assets/images/org.svg

<svg id="Layer_1" enable-background="new 0 0 511.999 511.999" height="512" viewBox="0 0 511.999 511.999" width="512" xmlns="http://www.w3.org/2000/svg"><g><path d="m476 120.004h-190v-110.004c0-5.522-4.477-10-10-10h-240c-5.523 0-10 4.478-10 10v491.999c0 5.522 4.477 10 10 10h240 200c5.523 0 10-4.478 10-10v-371.995c0-5.523-4.478-10-10-10zm-190 20h180v251.995h-180zm-160 351.995v-80h60v80zm70-100h-80c-5.523 0-10 4.478-10 10v90h-60v-471.999h220v471.999h-60v-90c0-5.522-4.478-10-10-10zm89.999 100v-80h180v80z"/><path d="m145.999 80.001h19.997c5.523 0 10-4.477 10-10v-20c0-5.523-4.477-10-10-10h-19.997c-5.523 0-10 4.477-10 10v20c0 5.523 4.477 10 10 10z"/><path d="m145.999 150.001h19.997c5.523 0 10-4.477 10-10v-20c0-5.523-4.477-10-10-10h-19.997c-5.523 0-10 4.477-10 10v20c0 5.523 4.477 10 10 10z"/><path d="m145.999 220.001h19.997c5.523 0 10-4.477 10-10v-20c0-5.523-4.477-10-10-10h-19.997c-5.523 0-10 4.477-10 10v20c0 5.523 4.477 10 10 10z"/><path d="m145.999 290h19.997c5.523 0 10-4.477 10-10v-20c0-5.523-4.477-10-10-10h-19.997c-5.523 0-10 4.477-10 10v20c0 5.523 4.477 10 10 10z"/><path d="m145.999 360h19.997c5.523 0 10-4.477 10-10v-20c0-5.523-4.477-10-10-10h-19.997c-5.523 0-10 4.477-10 10v20c0 5.523 4.477 10 10 10z"/><path d="m76.001 80.001h19.997c5.523 0 10-4.477 10-10v-20c0-5.523-4.477-10-10-10h-19.997c-5.523 0-10 4.477-10 10v20c0 5.523 4.477 10 10 10z"/><path d="m76.001 150.001h19.997c5.523 0 10-4.477 10-10v-20c0-5.523-4.477-10-10-10h-19.997c-5.523 0-10 4.477-10 10v20c0 5.523 4.477 10 10 10z"/><path d="m76.001 220.001h19.997c5.523 0 10-4.477 10-10v-20c0-5.523-4.477-10-10-10h-19.997c-5.523 0-10 4.477-10 10v20c0 5.523 4.477 10 10 10z"/><path d="m76.001 290h19.997c5.523 0 10-4.477 10-10v-20c0-5.523-4.477-10-10-10h-19.997c-5.523 0-10 4.477-10 10v20c0 5.523 4.477 10 10 10z"/><path d="m76.001 360h19.997c5.523 0 10-4.477 10-10v-20c0-5.523-4.477-10-10-10h-19.997c-5.523 0-10 4.477-10 10v20c0 5.523 4.477 10 10 10z"/><path d="m235.998 40.001h-19.997c-5.523 0-10 4.477-10 10v20c0 5.523 4.477 10 10 10h19.997c5.523 0 10-4.477 10-10v-20c0-5.523-4.477-10-10-10z"/><path d="m235.998 110h-19.997c-5.523 0-10 4.477-10 10v20c0 5.523 4.477 10 10 10h19.997c5.523 0 10-4.477 10-10v-20c0-5.522-4.477-10-10-10z"/><path d="m235.998 180h-19.997c-5.523 0-10 4.477-10 10v20c0 5.523 4.477 10 10 10h19.997c5.523 0 10-4.477 10-10v-20c0-5.522-4.477-10-10-10z"/><path d="m235.998 250h-19.997c-5.523 0-10 4.477-10 10v20c0 5.523 4.477 10 10 10h19.997c5.523 0 10-4.477 10-10v-20c0-5.522-4.477-10-10-10z"/><path d="m235.998 320h-19.997c-5.523 0-10 4.477-10 10v20c0 5.523 4.477 10 10 10h19.997c5.523 0 10-4.477 10-10v-20c0-5.523-4.477-10-10-10z"/><path d="m420.997 180h-19.997c-5.523 0-10 4.477-10 10v20c0 5.523 4.477 10 10 10h19.997c5.523 0 10-4.477 10-10v-20c0-5.522-4.478-10-10-10z"/><path d="m420.997 250h-19.997c-5.523 0-10 4.477-10 10v20c0 5.523 4.477 10 10 10h19.997c5.523 0 10-4.477 10-10v-20c0-5.522-4.478-10-10-10z"/><path d="m420.997 320h-19.997c-5.523 0-10 4.477-10 10v20c0 5.523 4.477 10 10 10h19.997c5.523 0 10-4.477 10-10v-20c0-5.523-4.478-10-10-10z"/><path d="m350.999 180h-19.997c-5.523 0-10 4.477-10 10v20c0 5.523 4.477 10 10 10h19.997c5.523 0 10-4.477 10-10v-20c0-5.522-4.478-10-10-10z"/><path d="m350.999 250h-19.997c-5.523 0-10 4.477-10 10v20c0 5.523 4.477 10 10 10h19.997c5.523 0 10-4.477 10-10v-20c0-5.522-4.478-10-10-10z"/><path d="m350.999 320h-19.997c-5.523 0-10 4.477-10 10v20c0 5.523 4.477 10 10 10h19.997c5.523 0 10-4.477 10-10v-20c0-5.523-4.478-10-10-10z"/></g></svg>

<svg width="512" height="512" viewBox="0 0 512 512" fill="none" xmlns="http://www.w3.org/2000/svg">
<path d="M476 120.004H286V10C286 4.478 281.523 0 276 0H36C30.477 0 26 4.478 26 10V501.999C26 507.521 30.477 511.999 36 511.999H276H476C481.523 511.999 486 507.521 486 501.999V130.004C486 124.481 481.522 120.004 476 120.004ZM286 140.004H466V391.999H286V140.004ZM126 491.999V411.999H186V491.999H126ZM196 391.999H116C110.477 391.999 106 396.477 106 401.999V491.999H46V20H266V491.999H206V401.999C206 396.477 201.522 391.999 196 391.999ZM285.999 491.999V411.999H465.999V491.999H285.999Z" fill="#8A8F98"/>
<path d="M145.999 80.001H165.996C171.519 80.001 175.996 75.524 175.996 70.001V50.001C175.996 44.478 171.519 40.001 165.996 40.001H145.999C140.476 40.001 135.999 44.478 135.999 50.001V70.001C135.999 75.524 140.476 80.001 145.999 80.001Z" fill="#8A8F98"/>
<path d="M145.999 150.001H165.996C171.519 150.001 175.996 145.524 175.996 140.001V120.001C175.996 114.478 171.519 110.001 165.996 110.001H145.999C140.476 110.001 135.999 114.478 135.999 120.001V140.001C135.999 145.524 140.476 150.001 145.999 150.001Z" fill="#8A8F98"/>
<path d="M145.999 220.001H165.996C171.519 220.001 175.996 215.524 175.996 210.001V190.001C175.996 184.478 171.519 180.001 165.996 180.001H145.999C140.476 180.001 135.999 184.478 135.999 190.001V210.001C135.999 215.524 140.476 220.001 145.999 220.001Z" fill="#8A8F98"/>
<path d="M145.999 290H165.996C171.519 290 175.996 285.523 175.996 280V260C175.996 254.477 171.519 250 165.996 250H145.999C140.476 250 135.999 254.477 135.999 260V280C135.999 285.523 140.476 290 145.999 290Z" fill="#8A8F98"/>
<path d="M145.999 360H165.996C171.519 360 175.996 355.523 175.996 350V330C175.996 324.477 171.519 320 165.996 320H145.999C140.476 320 135.999 324.477 135.999 330V350C135.999 355.523 140.476 360 145.999 360Z" fill="#8A8F98"/>
<path d="M76.001 80.001H95.998C101.521 80.001 105.998 75.524 105.998 70.001V50.001C105.998 44.478 101.521 40.001 95.998 40.001H76.001C70.478 40.001 66.001 44.478 66.001 50.001V70.001C66.001 75.524 70.478 80.001 76.001 80.001Z" fill="#8A8F98"/>
<path d="M76.001 150.001H95.998C101.521 150.001 105.998 145.524 105.998 140.001V120.001C105.998 114.478 101.521 110.001 95.998 110.001H76.001C70.478 110.001 66.001 114.478 66.001 120.001V140.001C66.001 145.524 70.478 150.001 76.001 150.001Z" fill="#8A8F98"/>
<path d="M76.001 220.001H95.998C101.521 220.001 105.998 215.524 105.998 210.001V190.001C105.998 184.478 101.521 180.001 95.998 180.001H76.001C70.478 180.001 66.001 184.478 66.001 190.001V210.001C66.001 215.524 70.478 220.001 76.001 220.001Z" fill="#8A8F98"/>
<path d="M76.001 290H95.998C101.521 290 105.998 285.523 105.998 280V260C105.998 254.477 101.521 250 95.998 250H76.001C70.478 250 66.001 254.477 66.001 260V280C66.001 285.523 70.478 290 76.001 290Z" fill="#8A8F98"/>
<path d="M76.001 360H95.998C101.521 360 105.998 355.523 105.998 350V330C105.998 324.477 101.521 320 95.998 320H76.001C70.478 320 66.001 324.477 66.001 330V350C66.001 355.523 70.478 360 76.001 360Z" fill="#8A8F98"/>
<path d="M235.998 40.001H216.001C210.478 40.001 206.001 44.478 206.001 50.001V70.001C206.001 75.524 210.478 80.001 216.001 80.001H235.998C241.521 80.001 245.998 75.524 245.998 70.001V50.001C245.998 44.478 241.521 40.001 235.998 40.001Z" fill="#8A8F98"/>
<path d="M235.998 110H216.001C210.478 110 206.001 114.477 206.001 120V140C206.001 145.523 210.478 150 216.001 150H235.998C241.521 150 245.998 145.523 245.998 140V120C245.998 114.478 241.521 110 235.998 110Z" fill="#8A8F98"/>
<path d="M235.998 180H216.001C210.478 180 206.001 184.477 206.001 190V210C206.001 215.523 210.478 220 216.001 220H235.998C241.521 220 245.998 215.523 245.998 210V190C245.998 184.478 241.521 180 235.998 180Z" fill="#8A8F98"/>
<path d="M235.998 250H216.001C210.478 250 206.001 254.477 206.001 260V280C206.001 285.523 210.478 290 216.001 290H235.998C241.521 290 245.998 285.523 245.998 280V260C245.998 254.478 241.521 250 235.998 250Z" fill="#8A8F98"/>
<path d="M235.998 320H216.001C210.478 320 206.001 324.477 206.001 330V350C206.001 355.523 210.478 360 216.001 360H235.998C241.521 360 245.998 355.523 245.998 350V330C245.998 324.477 241.521 320 235.998 320Z" fill="#8A8F98"/>
<path d="M420.997 180H401C395.477 180 391 184.477 391 190V210C391 215.523 395.477 220 401 220H420.997C426.52 220 430.997 215.523 430.997 210V190C430.997 184.478 426.519 180 420.997 180Z" fill="#8A8F98"/>
<path d="M420.997 250H401C395.477 250 391 254.477 391 260V280C391 285.523 395.477 290 401 290H420.997C426.52 290 430.997 285.523 430.997 280V260C430.997 254.478 426.519 250 420.997 250Z" fill="#8A8F98"/>
<path d="M420.997 320H401C395.477 320 391 324.477 391 330V350C391 355.523 395.477 360 401 360H420.997C426.52 360 430.997 355.523 430.997 350V330C430.997 324.477 426.519 320 420.997 320Z" fill="#8A8F98"/>
<path d="M350.999 180H331.002C325.479 180 321.002 184.477 321.002 190V210C321.002 215.523 325.479 220 331.002 220H350.999C356.522 220 360.999 215.523 360.999 210V190C360.999 184.478 356.521 180 350.999 180Z" fill="#8A8F98"/>
<path d="M350.999 250H331.002C325.479 250 321.002 254.477 321.002 260V280C321.002 285.523 325.479 290 331.002 290H350.999C356.522 290 360.999 285.523 360.999 280V260C360.999 254.478 356.521 250 350.999 250Z" fill="#8A8F98"/>
<path d="M350.999 320H331.002C325.479 320 321.002 324.477 321.002 330V350C321.002 355.523 325.479 360 331.002 360H350.999C356.522 360 360.999 355.523 360.999 350V330C360.999 324.477 356.521 320 350.999 320Z" fill="#8A8F98"/>
</svg>
